assets/security-grey/SecurityGrey2.svg

<svg xmlns="http://www.w3.org/2000/svg" data-name="Layer 3" viewBox="0 0 128 128"><path d="M55.686 93.24h16.629a5.673 5.673 0 005.666-5.666V70.54a1.61 1.61 0 00-1.61-1.61h-3.355v-5.388a9.023 9.023 0 00-18.031 0v5.388H51.63a1.61 1.61 0 00-1.61 1.61v17.035a5.673 5.673 0 005.666 5.665zm2.52-29.7a5.806 5.806 0 0111.589 0v5.39H58.206zm-4.966 8.61h21.52v15.425a2.448 2.448 0 01-2.446 2.445H55.686a2.448 2.448 0 01-2.446-2.445z"/><path d="M62.389 83.211v3.147a1.61 1.61 0 003.221 0v-3.147a4.855 4.855 0 10-3.221 0zM64 77.017a1.634 1.634 0 11-1.633 1.634A1.637 1.637 0 0164 77.017z"/><path d="M21.587 68.657h11.4v24.83a11.263 11.263 0 0011.25 11.249H83.76a11.263 11.263 0 0011.25-11.249V68.626c1.162.03 2.744.03 4.9.031h6.506a1.61 1.61 0 001.135-2.752L65.135 23.732a1.611 1.611 0 00-2.271 0L20.452 65.9a1.61 1.61 0 001.135 2.752zM64 27.145l38.509 38.291H93.4a1.611 1.611 0 00-1.61 1.611v26.44a8.038 8.038 0 01-8.029 8.029H44.24a8.038 8.038 0 01-8.029-8.029V67.046a1.611 1.611 0 00-1.61-1.61h-9.11z"/></svg>

<svg id="Layer_3" data-name="Layer 3" xmlns="http://www.w3.org/2000/svg" viewBox="0 0 128 128"><title>Artboard 98</title><path d="M55.686,93.24H72.315a5.673,5.673,0,0,0,5.666-5.666V70.54a1.61,1.61,0,0,0-1.61-1.61H73.016V63.542a9.023,9.023,0,0,0-18.031,0V68.93H51.63a1.61,1.61,0,0,0-1.61,1.61V87.575A5.673,5.673,0,0,0,55.686,93.24Zm2.52-29.7a5.806,5.806,0,0,1,11.589,0V68.93H58.206ZM53.24,72.15H74.76V87.575a2.448,2.448,0,0,1-2.446,2.445H55.686a2.448,2.448,0,0,1-2.446-2.445Z" style="fill:#231f20"/><path d="M62.389,83.211v3.147a1.61,1.61,0,0,0,3.221,0V83.211a4.855,4.855,0,1,0-3.221,0ZM64,77.017a1.634,1.634,0,1,1-1.633,1.634A1.637,1.637,0,0,1,64,77.017Z" style="fill:#231f20"/><path d="M21.587,68.657h11.4v24.83a11.263,11.263,0,0,0,11.25,11.249H83.76a11.263,11.263,0,0,0,11.25-11.249V68.626c1.162.03,2.744.03,4.9.031h6.506a1.61,1.61,0,0,0,1.135-2.752L65.135,23.732a1.611,1.611,0,0,0-2.271,0L20.452,65.9a1.61,1.61,0,0,0,1.135,2.752ZM64,27.145l38.509,38.291c-3.726,0-8.814,0-9.086,0H93.4a1.611,1.611,0,0,0-1.61,1.611V93.487a8.038,8.038,0,0,1-8.029,8.029H44.24a8.038,8.038,0,0,1-8.029-8.029V67.046a1.611,1.611,0,0,0-1.61-1.61H25.491Z" style="fill:#231f20"/></svg>
